X:1
T:E si bella la cagione
T:E si bella la cagione
T:Francesco Boccarini
T:Source : Ariette di Musica a 1 e 2 voci---Bracciano---Andrea Fei---1646. Editor : André Vierendeels (11/04/16).
T:Notes : Original clefs : C1, F4 Editorial accidentals above the staff Dotted brackets indicate black notes Note values have been halved in  6/4 measures Figures in BC are notated in original print m 27 in S and BC : music adapted by the editor m 6 in BC "G" notated as "F" in original print Music collected by Florido de Silvestris  
T:©
T:©
T:©
T:©
T:©
C:Francesco Boccarini
Z:©
%%score 1 2
L:1/8
Q:1/4=80
M:4/4
K:C
V:1 treble nm="Soprano" snm="S"
V:2 bass nm="BC" snm="BC"
V:1
 z2 Ad c/B/c/d/ c d/c/ | _B/A/B/c/ B>A AABc | d2 A4 AG | A2 A2 z2 AG | %4
w: E si bel- * * * * la _|la _ _ _ _ ca- gio- ne, on- de'in|sen por- to l'ar-|su- ra on- de'in|
w: Co- si lie- * * * * to _|nel _ _ _ _ tor- men- to, d'un bel|crin tra flut- ti|d'o- ro, nau- fra-|
w: Fe- ste- leg- * * * gian- do'in _|grem- * * * * bo'al duo- lo, la do-|ve'ar- d'e piu sia|vil- la, lo splen-|
 F/G/E/G/ D/E/F/G/ A>B AB/c/ | d4 e2 eB | ^c2 c2 z2 AA | A4 c2 cc | cA_Bc dc/d/ BA/B/ | %9
w: sen _ _ _ _ _ _ _ _ _ _ _ _|_ por- o l'ar-|su- ra, ch'el mio|cor stim' à ven-|tu- ra le ca- te- * * * * *|
w: ger _ _ _ _ _ _ _ _ _ _ _ _|_ nel mar ch'a-|do- ro, io non|te- mo, e non|pa- nen- to'e se lin- * * * * *|
w: dor _ _ _ _ _ _ _ _ _ _ _ _|_ d'al- ta pu-|pil- la, spie- ga|l'al- ma ar- di-|ta se ra- gi- * * * * * *|
 GA/B/ cB/c/ A_B/c/ d/c/B/A/ | GA_BA G4 | F4 z2 cc | c4 d2 de | ecde fe/f/ dc/d/ | %14
w: |ne, e la pre- gio-|ne, ch'el mio|cor stim' à ven-|tu- ra le ca- te- * * * * *|
w: |gua, a- mi- ca'e fi-|da, non io|te- mo, e non|pa- nen- to'e se lin- * * * * *|
w: |on, che la de- fen-|de, spie- ga|l'al- ma, ar- di-|ta se ra- gi- * * * * * *|
 _B/A/B/c/ d/c/B/A/ BA/B/ GF/G/ | EFGF E4 | D8 || z2 AA d>d df | ddAB cA f>e | %19
w: |ne, e la pre- gio-|ne.|E se ri- gi- do'e se-|re- no con- si- glie- ro me mi|
w: |gua, a- mi- ca'e fi-|da.|L'al- ma fri- gi- da ch'al-|la vi- ta, l'al- ma fri- gi- da|
w: |on, che la de- fen-|de.|Mi ri- pren- de, e sde-|gno- sa, mi ri- pren- de, e sde-|
 d/e/c/d/ _B/c/A/B/ GG A2- | A2 AG A2 A2 |[M:6/4] z2 E4 A2 z2 B2 | c4 d2 e2 e2 d2 | c2 B4 A2 F4 | %24
w: nac- * * * * * * * * cia as-|* pro pe- ri- glio,|ah- i, ah-|i, ch'A- mor non vuol|con- si- glio, non|
w: ch'al _ _ _ la _ _ _ vi- t'ap- pres-|* ta e si- glio,||||
w: gno- * * * * * * * * sa mar-|* ca il ci- glio,||||
 z4 G2 A2 B2 dc | _BA G4 F4 z2 | z2 A4 z4 B2 | c4 z2 d2 z2 e2 | f4 A2 d2 B2 e2 | %29
w: non, non, non vuol _|con- * si- glio,|ahi a-|hi ahi a-|hi ch'a- mor _ non|
w: |||||
w: |||||
 c2 A2 d2 B2 G2 c2- | c2 A2 f2 e2 d2 e2 | e2 d4 c4 z2 | z4 e2 c2 A2 d2 | B3 A GF E4 A2 | %34
w: vuol _ non vuol _ non|_ non, vuol non, non, non,|con- si- glio|non, _ vuol, non|vuol _ _ _ _ con-|
w: |||||
w: |||||
 F2 D2 d2 d2 ef ed | ^c2 A2 d2 d4 c2 | d12 |] %37
w: si- gli- o, non, vuol _ _ _|_ con- * si- gli-|o.|
w: |||
w: |||
V:2
 D,4 A,2 A,2 |"^6""^7 6" G,4 F,2 E,2 | D,3 C, _B,,4 | A,,2 A,G, F,2 ^C,2 | D,4 C,4 | %5
 _B,,2 A,,2 G,,4 | A,,3 B,, ^C,2 D,2 | A,2 G,2 F,2 E,2 | F,2 A,2 _B,2 _B,,2 | C,4 F,,4 | %10
 _B,,4 C,4 | F,,2 C,2 F,2 G,2 | A,2 E,2 F,2 G,2 | C,4 F,,4 | G,,4 G,,4 |"^#" A,,2 G,,2 A,,4 | %16
 D,8 || D,8 | D,4 A,,4 | _B,,4 C,4 | _B,,4 A,,4 |[M:6/4] A,,6 A,,2 A,2 ^G,2 | %22
 A,2 A,,2 B,,2 C,4 D,2 |"^5 6" E,6 A,,6 | G,,2 C,4 F,,4 _B,,2- | B,,2 C,4 F,,2 F,G, A,B, | C6 B,6 | %27
"^6""^6" A,4 G,2 F,4 E,2 |"^6""^7" D,4 C,2 B,,2 E,4 | A,,2 A,2 ^F,2 G,4 E,2- | %30
 E,2 F,2 D,2 E,2 F,4 | G,2 G,,4 C,2 CD CB, | A,4 ^G,2 A,4 ^F,2 | G,2 B,,4 C,4 A,,2 | %34
 D,4 _B,,4 G,,4 |"^4 3" A,,6 A,,6 | D,12 |] %37

